X: 112
Q: "slow"
M: C
L: 1/8
K: F
V: 1
|: c>d |\
f2(f/g/)a Tc3d | f>efg a2fg | (ag)Tfd (f>d)(TcA) | (BA)(TGF) D2TA>G |
V: 2 clef=bass middle=d
z2 |\
fg"6"af "6"ecc'b | a3"6"e fFf_e | "6"dcdB "6"A2zF | c3"6"A B2"6 5;4 3"c2 | de"6"fd
"6"ecc'b | "6"abag f2"6"g2 | "6"a2b2 c'2"3"c2 | f2c2 F2 :|\
|: z2 |\
fg"6"af "6"ecc'b | "6"a"6"gf"6"e f2zc |
de"6"fd "6"egc'b | "6"abag f2"6"g2 | "6"a2"6;5"b2 "4"c'2"3"c2 | f2c2 F2 :|

